svgs/sharp-regular/earth-africa.svg

<svg xmlns="http://www.w3.org/2000/svg" viewBox="0 0 512 512"><!--! Font Awesome Pro 6.4.0 by @fontawesome - https://fontawesome.com License - https://fontawesome.com/license (Commercial License) Copyright 2023 Fonticons, Inc. --><path d="M464 256c0-22.3-3.5-43.8-10-64H352v32l32 32v64H352v48l-48 48H256V320H160V232l40-40h88l64-64H256l-32 32H192V58C108.4 85 48 163.5 48 256c0 114.9 93.1 208 208 208s208-93.1 208-208zM0 256a256 256 0 1 1 512 0A256 256 0 1 1 0 256z"/></svg>

<svg xmlns="http://www.w3.org/2000/svg" viewBox="0 0 512 512"><!--! Font Awesome Pro 6.6.0 by @fontawesome - https://fontawesome.com License - https://fontawesome.com/license (Commercial License) Copyright 2024 Fonticons, Inc. --><path d="M464 256c0-22.3-3.5-43.8-10-64l-102 0 0 32 32 32 0 64-32 0 0 48-48 48-48 0 0-96-96 0 0-88 40-40 88 0 64-64-96 0-32 32-32 0 0-102C108.4 85 48 163.5 48 256c0 114.9 93.1 208 208 208s208-93.1 208-208zM0 256a256 256 0 1 1 512 0A256 256 0 1 1 0 256z"/></svg>
